X:1
T:Montgomery
M:3/4
L:1/8
Q:80
C:David Williams
S:Slow Air
K:HP
[| {G}A2B{GdG}c2f | \
{gef}e2c/2B{G}A2-A/2 | \
{GAG}A2B{GdG}c2f- |
f/2{g}e/2c3{gBd}B2 | | \
{G}A2B{GdG}c2f | \
{gef}e2c/2B{G}A2-A/2 |
{GAG}A2B{GdG}c2f- | \
f/2{g}e/2c3{G}A2|] [ | \
{G}A2c{GdG}c2f |
{gfg}f2e/2f{ag}a2-a/2 | \
{ef}e2d/2c{gBd}B2-B/2 | \
A/2B/2{g}e3{A}e2| |
{G}A2c{GdG}c2f | \
{gfg}f2e/2f{ag}a2-a/2 | \
{ef}e2d/2c{gBd}B2-B/2 |
A/2B/2{G}A3{GAG}A2
